packages/icons/svg/Navigation_Publish_Copy_64px.svg

<svg xmlns="http://www.w3.org/2000/svg" viewBox="0 0 64 64"><path d="M53 5H20a2 2 0 00-2 2v41a2 2 0 002 2h33a2 2 0 002-2V7a2 2 0 00-2-2zm-1 42H21V8h31z"/><path d="M43 56H12V17h3.5v-3H11a2 2 0 00-2 2v41a2 2 0 002 2h33a2 2 0 002-2v-4.5h-3z"/></svg>

<svg xmlns="http://www.w3.org/2000/svg" viewBox="0 0 64 64"><defs></defs><g id="Icon"><path  d="M53,5H20a2,2,0,0,0-2,2V48a2,2,0,0,0,2,2H53a2,2,0,0,0,2-2V7A2,2,0,0,0,53,5ZM52,47H21V8H52Z"/><path  d="M43,56H12V17h3.5V14H11a2,2,0,0,0-2,2V57a2,2,0,0,0,2,2H44a2,2,0,0,0,2-2V52.5H43Z"/></g></svg>
